X: 1353
T: The Comely Maiden
R:Reel
N:Collected by O'Reilly
B:O'Neill's 1353
Z:Transcribed by Trish O'Neil
M:C|
L:1/8
K:D
d2(dc) dAFA|dbab fbaf|d2(dc) dAFA|Beed cABc|
d2(dc) dAFA|dbab fbaf|bagf edcB|Aeed cABc||
d2(a^g) afdf|abaf e^def|d2(a^g) afdf|efed cABc|
d2(a^g) afdf|abaf e^deg|bgaf gfed|efed cABc|]


